X:56
T:Aiken Drum
M:4/4
L:1/4
K:G
G/2A/2 | "G"B B c/2B/2A/2G/2 | "C"E2 G3/2 E/2 | "G"D E G D | "D"B A A G/2A/2 | \
"G"B B c/2B/2A/2G/2 | "C"E2 G3/2 E/2 | "D7"D D E F | "G"G3 :|]
[|: G/2A/2 | "G"B B B A/2G/2 | "C"c2 e3/2 c/2 | "G" B d B G | "D"B A A G/2A/2 | \
"G"B B c/2B/2A/2G/2 | "C"E2 G3/2 E/2 | "D7"D D E F | "G"G3 :|]

